(Block-name: Header)
(Block-expand: 0)
(Block-enable: 1)
;Generated with Cura_SteamEngine 15.01
; Default start code
(Block-name: block)
(Block-expand: 0)
(Block-enable: 1)
G28 ; Home extruder
G1 Z15 F100
M107 ; Turn off fan
G90 ; Absolute positioning
M82 ; Extruder in absolute mode
M190 S50
; Activate all used extruder
M104 T0 S210
G92 E0 ; Reset extruder position
; Wait for all used extruders to reach temperature
M109 T0 S210
;Layer count: 43
;LAYER:0
M107
G0 F9000 X-58.905 Y-34.442 Z0.3
(Block-name: block)
(Block-expand: 0)
(Block-enable: 1)
;TYPE:WALL-OUTER
G1 F2400 E103.89109
G1 F1800 X-51.958 Y-18.81 E103.89966
G1 X-53.023 Y-19.602 E103.96587
G1 X-51.923 Y-18.978 E104.02896
G1 F2400 E100.02896
G0 F9000 X-38.926 Y-11.6
G1 F2400 E104.02896
G1 F1800 X-37.567 Y-10.828 E104.10694
G1 X-37.679 Y-10.296 E104.13406
G1 X-38.926 Y-11.6 E104.22408
;LAYER:1
M106 S127
G1 F2400 E100.22408
G0 F9000 X-52.24 Y-19.468 Z0.5
(Block-name: block)
(Block-expand: 0)
(Block-enable: 1)
;TYPE:WALL-INNER
G1 F2400 E104.22408
G1 F660 X-54.25 Y-20.966 E104.30746
G1 X-53.881 Y-20.76 E104.32151
G1 X-53.206 Y-20.373 E104.34739
G1 X-52.716 Y-20.096 E104.36611
G1 X-52.173 Y-19.788 E104.38688
G1 X-52.24 Y-19.468 E104.39775
G0 F9000 X-53.009 Y-20.721
;TYPE:WALL-OUTER
G1 F540 X-51.722 Y-19.991 E104.44696
G1 X-51.978 Y-18.774 E104.48833
G1 X-59.666 Y-24.502 E104.8072
G1 X-54.152 Y-21.37 E105.01812
G1 X-53.682 Y-21.106 E105.03605
G1 X-53.009 Y-20.721 E105.06183
G1 F2400 E101.06183
G0 F9000 X-39.235 Y-12.445
;TYPE:WALL-INNER
G1 F2400 E105.06183
G1 F660 X-38.48 Y-12.015 E105.09073
G1 X-37.817 Y-11.637 E105.11612
G1 X-37.933 Y-11.084 E105.13491
G1 X-39.235 Y-12.445 E105.19755
G0 F9000 X-37.69 Y-11.75
G0 X-37.366 Y-11.84
;TYPE:WALL-OUTER
G1 F540 X-37.699 Y-10.26 E105.25126
G1 X-41.402 Y-14.132 E105.42946
G1 X-37.366 Y-11.84 E105.58383
;LAYER:2
M106 S239
G1 F2400 E101.58383
G0 F9000 X-52.468 Y-19.586 Z0.7
(Block-name: block)
(Block-expand: 0)
(Block-enable: 1)
;TYPE:WALL-INNER
G1 F2400 E105.58383
G1 F1560 X-60.895 Y-25.865 E105.93336
G1 X-59.177 Y-24.889 E105.99908
G1 X-57.528 Y-23.956 E106.0621
G1 X-55.682 Y-22.907 E106.13272
G1 X-55.663 Y-22.802 E106.13626
G1 X-55.457 Y-22.36 E106.15248
G1 X-55.138 Y-21.989 E106.16876
G1 X-54.735 Y-21.714 E106.18498
G1 X-54.274 Y-21.557 E106.20118
G1 X-53.787 Y-21.526 E106.21741
G1 X-53.394 Y-21.607 E106.23076
G1 X-51.972 Y-20.8 E106.28514
G1 X-52.253 Y-19.464 E106.33055
G1 X-52.468 Y-19.586 E106.33877
G0 F9000 X-52.686 Y-19.25
;TYPE:WALL-OUTER
G1 F1320 X-66.313 Y-29.402 E106.90396
G1 X-55.323 Y-23.163 E107.32428
G1 X-55.279 Y-22.925 E107.33233
G1 X-55.118 Y-22.579 E107.34502
G1 X-54.869 Y-22.29 E107.35771
G1 X-54.555 Y-22.075 E107.37037
G1 X-54.195 Y-21.953 E107.38301
G1 X-53.815 Y-21.929 E107.39567
G1 X-53.44 Y-22.005 E107.4084
G1 X-53.358 Y-22.046 E107.41145
G1 X-52.902 Y-21.789 E107.42886
G1 X-51.521 Y-21.002 E107.48173
G1 X-51.975 Y-18.847 E107.55497
G1 X-52.686 Y-19.25 E107.58216
G0 F9000 X-52.226 Y-20.278
;TYPE:FILL
G1 F1920 X-53.395 Y-21.447 E107.63714
G0 F9000 X-55.654 Y-22.135
G1 F1920 X-57.032 Y-23.513 E107.70196
G0 F9000 X-57.326 Y-23.68
;TYPE:SKIN
G1 F1320 X-56.154 Y-22.507 E107.75711
G0 F9000 X-55.762 Y-22.681
G1 F1320 X-56.018 Y-22.937 E107.76915
G0 F9000 X-54.602 Y-21.522
G1 F1320 X-53.932 Y-20.851 E107.80069
G0 F9000 X-53.91 Y-21.395
G1 F1320 X-52.325 Y-19.81 E107.87524
G0 F9000 X-52.226 Y-20.277
G1 F1320 X-53.399 Y-21.449 E107.9304
G1 F2400 E103.93040
G0 F9000 X-41.71 Y-14.977
;TYPE:WALL-INNER
G1 F2400 E107.93040
G1 F1560 X-39.531 Y-13.741 E108.01372
G1 X-38.801 Y-13.324 E108.04168
G1 X-37.616 Y-12.649 E108.08704
G1 X-37.896 Y-11.319 E108.13224
G1 X-38.587 Y-11.711 E108.15867
G1 X-41.71 Y-14.977 E108.30896
G1 F2400 E104.30896
G0 F9000 X-43.878 Y-16.665
;TYPE:WALL-OUTER
G1 F2400 E108.30896
G1 F1320 X-37.165 Y-12.853 E108.56573
G1 X-37.618 Y-10.702 E108.63884
G1 X-38.837 Y-11.392 E108.68543
G1 X-43.878 Y-16.665 E108.92806
G1 F2400 E104.92806
G0 F9000 X-38.857 Y-13.194
;TYPE:FILL
G1 F2400 E108.92806
G1 F1920 X-37.856 Y-12.193 E108.97514
G0 F9000 X-37.866 Y-12.14
;TYPE:SKIN
G1 F1320 X-39.004 Y-13.277 E109.02865
G0 F9000 X-40.317 Y-14.024
G1 F1320 X-37.965 Y-11.673 E109.13925
G1 F2400 E105.13925
G0 F9000 X-16.031 Y-0.86
;TYPE:WALL-OUTER
G1 F2400 E109.13925
G1 F1320 X-14.894 Y-0.215 E109.18273
G1 X-14.923 Y-0.076 E109.18745
G1 X-16.031 Y-0.86 E109.2326
;LAYER:3
M106 S135
G1 F2400 E105.23260
G0 F9000 X-52.052 Y-20.478 Z0.9
(Block-name: block)
(Block-expand: 0)
(Block-enable: 1)
;TYPE:WALL-INNER
G1 F2400 E109.23260
G1 F3300 X-53.838 Y-21.492 E109.30091
G1 X-53.807 Y-21.49 E109.30194
G1 X-53.328 Y-21.588 E109.3182
G1 X-52.892 Y-21.806 E109.33442
G1 X-52.527 Y-22.127 E109.35058
G1 X-52.47 Y-22.211 E109.35396
G1 X-51.771 Y-21.812 E109.38073
G1 X-52.052 Y-20.478 E109.42607
G1 F2400 E105.42607
G0 F9000 X-55.684 Y-22.765
G1 F2400 E109.42607
G1 F3300 X-55.54 Y-22.458 E109.43735
G1 X-59.111 Y-24.486 E109.57394
G1 X-67.533 Y-30.76 E109.92324
G1 X-66.734 Y-30.307 E109.95379
G1 X-65.713 Y-29.731 E109.99278
G1 X-65.107 Y-29.383 E110.01602
G1 X-64.985 Y-29.125 E110.02551
G1 X-64.668 Y-28.756 E110.04169
G1 X-64.266 Y-28.481 E110.05789
G1 X-63.803 Y-28.324 E110.07415
G1 X-63.318 Y-28.293 E110.09032
G1 X-63.222 Y-28.312 E110.09357
G1 X-55.637 Y-24.007 E110.38365
G1 X-55.734 Y-23.73 E110.39341
G1 X-55.772 Y-23.244 E110.40963
G1 X-55.684 Y-22.765 E110.42582
G0 F9000 X-55.3 Y-22.888
;TYPE:WALL-OUTER
G1 F2520 X-55.137 Y-22.542 E110.43855
G1 X-54.889 Y-22.254 E110.45119
G1 X-54.575 Y-22.039 E110.46384
G1 X-54.215 Y-21.917 E110.47649
G1 X-53.835 Y-21.893 E110.48915
G1 X-53.46 Y-21.969 E110.50188
G1 X-53.117 Y-22.141 E110.51464
G1 X-52.83 Y-22.394 E110.52736
G1 X-52.614 Y-22.713 E110.54018
G1 X-52.602 Y-22.746 E110.54134
G1 X-51.319 Y-22.016 E110.59044
G1 X-51.773 Y-19.86 E110.66372
G1 X-59.329 Y-24.149 E110.9527
G1 X-68.744 Y-31.163 E111.34319
G1 X-68.727 Y-31.244 E111.34594
G1 X-67.928 Y-31.442 E111.37332
G1 X-65.514 Y-30.077 E111.46556
G1 X-64.799 Y-29.668 E111.49296
G1 X-64.646 Y-29.345 E111.50484
G1 X-64.399 Y-29.057 E111.51746
G1 X-64.085 Y-28.842 E111.53012
G1 X-63.724 Y-28.72 E111.54279
G1 X-63.345 Y-28.696 E111.55542
G1 X-63.155 Y-28.734 E111.56187
G1 X-55.106 Y-24.165 E111.8697
G1 X-55.212 Y-24.01 E111.87595
G1 X-55.339 Y-23.647 E111.88874
G1 X-55.369 Y-23.265 E111.90149
G1 X-55.3 Y-22.888 E111.91423
G1 F2400 E107.91423
G0 F9000 X-52.62 Y-20.962
;TYPE:FILL
G1 F2400 E111.91423
G1 F4140 X-51.953 Y-21.629 E111.94561
G0 F9000 X-51.941 Y-21.75
;TYPE:SKIN
G1 F2520 X-52.689 Y-21.002 E111.98079
G0 F9000 X-52.329 Y-20.797
G1 F2520 X-52.075 Y-21.051 E111.99274
G0 F9000 X-52.302 Y-21.955
G1 F2520 X-53.05 Y-21.207 E112.02792
G1 F2400 E108.02792
G0 F9000 X-55.857 Y-22.926
G1 F2400 E112.02792
G1 F2520 X-56.118 Y-22.948 E112.03169
G1 X-55.896 Y-23.452 E112.05001
G0 F9000 X-55.912 Y-24.002
G1 F2520 X-56.659 Y-23.255 E112.08514
G0 F9000 X-57.02 Y-23.46
G1 F2520 X-56.273 Y-24.207 E112.12028
G0 F9000 X-56.634 Y-24.412
G1 F2520 X-57.38 Y-23.665 E112.15539
G0 F9000 X-57.741 Y-23.87
G1 F2520 X-56.994 Y-24.617 E112.19053
G0 F9000 X-57.355 Y-24.822
G1 F2520 X-58.102 Y-24.074 E112.22569
G0 F9000 X-58.463 Y-24.279
G1 F2520 X-57.716 Y-25.026 E112.26083
G0 F9000 X-58.077 Y-25.231
G1 F2520 X-58.824 Y-24.484 E112.29596
G0 F9000 X-59.17 Y-24.704
G1 F2520 X-58.438 Y-25.436 E112.33039
G0 F9000 X-58.799 Y-25.641
G1 F2520 X-59.494 Y-24.945 E112.36311
G0 F9000 X-59.819 Y-25.187
G1 F2520 X-59.159 Y-25.846 E112.39413
G0 F9000 X-59.52 Y-26.051
G1 F2520 X-60.142 Y-25.428 E112.42341
G0 F9000 X-60.466 Y-25.67
G1 F2520 X-59.881 Y-26.256 E112.45095
G0 F9000 X-60.242 Y-26.46
G1 F2520 X-60.953 Y-26.032 E112.47676
G1 X-60.783 Y-26.768 E112.50081
G1 X-61.601 Y-26.515 E112.52317
G1 X-61.505 Y-27.178 E112.54378
G1 X-62.249 Y-26.999 E112.56261
G1 X-62.227 Y-27.587 E112.57979
G1 X-62.898 Y-27.482 E112.59515
G1 X-62.948 Y-27.997 E112.60883
G1 X-63.546 Y-27.965 E112.62083
G1 X-63.619 Y-28.174 E112.62819
G1 F2400 E108.62819
G0 F9000 X-44.181 Y-17.504
;TYPE:WALL-INNER
G1 F2400 E112.62819
G1 F3300 X-41.192 Y-15.808 E112.7425
G1 X-40.9 Y-15.642 E112.75367
G1 X-40.91 Y-15.519 E112.75777
G1 X-40.823 Y-15.038 E112.77403
G1 X-40.614 Y-14.598 E112.79023
G1 X-40.296 Y-14.228 E112.80646
G1 X-39.893 Y-13.954 E112.82267
G1 X-39.433 Y-13.796 E112.83884
G1 X-38.945 Y-13.765 E112.85511
G1 X-38.468 Y-13.863 E112.8713
G1 X-38.092 Y-14.049 E112.88526
G1 X-37.414 Y-13.663 E112.9112
G1 X-37.695 Y-12.33 E112.95651
G1 X-38.169 Y-12.601 E112.97467
G1 X-41.06 Y-14.241 E113.08522
G1 X-44.181 Y-17.504 E113.2354
G0 F9000 X-40.806 Y-15.562
G0 X-40.507 Y-15.539
;TYPE:WALL-OUTER
G1 F2520 X-40.439 Y-15.162 E113.24814
G1 X-40.275 Y-14.818 E113.26082
G1 X-40.027 Y-14.529 E113.27349
G1 X-39.713 Y-14.315 E113.28612
G1 X-39.354 Y-14.192 E113.29875
G1 X-38.973 Y-14.168 E113.31144
G1 X-38.599 Y-14.244 E113.32414
G1 X-38.257 Y-14.414 E113.33684
G1 X-38.126 Y-14.529 E113.34264
G1 X-36.963 Y-13.866 E113.38716
G1 X-37.417 Y-11.713 E113.46035
G1 X-41.309 Y-13.921 E113.60918
G1 X-46.354 Y-19.197 E113.85197
G1 X-40.481 Y-15.863 E114.07659
G1 X-40.507 Y-15.539 E114.0874
G0 F9000 X-41.011 Y-15.288
;TYPE:FILL
G1 F4140 X-41.448 Y-14.851 E114.10795
G0 F9000 X-42.216 Y-15.655
G1 F4140 X-41.849 Y-16.022 E114.12522
G0 F9000 X-42.851 Y-16.59
G1 F4140 X-42.984 Y-16.457 E114.13147
G0 F9000 X-40.592 Y-14.136
G1 F4140 X-40.49 Y-14.238 E114.13627
G0 F9000 X-39.59 Y-13.567
G1 F4140 X-39.488 Y-13.669 E114.14107
G0 F9000 X-38.588 Y-12.998
G1 F4140 X-37.84 Y-13.746 E114.17625
G0 F9000 X-37.868 Y-13.762
;TYPE:SKIN
G1 F2520 X-38.616 Y-13.014 E114.21143
G0 F9000 X-38.255 Y-12.809
G1 F2520 X-37.6 Y-13.464 E114.24224
G0 F9000 X-37.751 Y-12.747
G1 F2520 X-37.894 Y-12.604 E114.24897
G0 F9000 X-38.977 Y-13.219
G1 F2520 X-38.8 Y-13.679 E114.27249
G1 X-39.337 Y-13.424 E114.29227
G0 F9000 X-40.626 Y-14.398
G1 F2520 X-40.941 Y-14.366 E114.29951
G1 X-40.915 Y-14.957 E114.31166
G1 X-41.516 Y-14.922 E114.32988
G1 X-41.296 Y-15.708 E114.35519
G1 X-42.069 Y-15.501 E114.37655
G1 X-42.018 Y-16.118 E114.3939
G1 X-42.622 Y-16.079 E114.40734
G1 X-42.74 Y-16.527 E114.41678
G1 X-43.037 Y-16.512 E114.42667
G1 F2400 E110.42667
G0 F9000 X-17.638 Y-2.439
;TYPE:WALL-INNER
G1 F2400 E114.42667
G1 F3300 X-16.644 Y-1.875 E114.46468
G1 X-16.051 Y-1.537 E114.48738
G1 X-15.145 Y-1.023 E114.52203
G1 X-15.209 Y-0.719 E114.53236
G1 X-17.638 Y-2.439 E114.63135
G0 F9000 X-15.017 Y-1.136
G0 X-14.693 Y-1.227
;TYPE:WALL-OUTER
G1 F2520 X-14.943 Y-0.04 E114.6717
G1 X-24.401 Y-6.737 E115.05715
G1 X-14.693 Y-1.227 E115.42842
G0 F9000 X-15.017 Y-1.136
G0 X-17.821 Y-2.659
G0 X-17.77 Y-2.747
;TYPE:SKIN
G1 F2520 X-18.206 Y-2.595 E115.44109
G1 X-18.312 Y-3.054 E115.45229
G1 X-18.868 Y-3.064 E115.46209
G1 X-19.034 Y-3.463 E115.4705
G1 X-19.53 Y-3.533 E115.47754
G1 X-19.756 Y-3.873 E115.48314
G1 X-20.027 Y-3.884 E115.49216
;LAYER:4
M106 S127
G1 F2400 E111.49216
G0 F9000 X-51.816 Y-21.662 Z1.1
(Block-name: block)
(Block-expand: 0)
(Block-enable: 1)
;TYPE:WALL-INNER
G1 F2400 E115.49216
G1 F4020 X-51.852 Y-21.491 E115.49798
G1 X-52.384 Y-21.793 E115.51832
G1 X-52.691 Y-21.966 E115.53004
G1 X-52.548 Y-22.092 E115.53638
G1 X-52.273 Y-22.496 E115.55264
G1 X-52.113 Y-22.957 E115.56887
G1 X-52.099 Y-23.126 E115.57451
G1 X-51.57 Y-22.826 E115.59473
G1 X-51.816 Y-21.662 E115.6343
G1 F2400 E111.63430
G0 F9000 X-55.593 Y-24.155
G1 F2400 E115.63430
G1 F4020 X-55.75 Y-23.706 E115.65012
G1 X-63.833 Y-28.293 E115.95924
G1 X-63.338 Y-28.257 E115.97575
G1 X-62.858 Y-28.355 E115.99204
G1 X-62.422 Y-28.573 E116.00825
G1 X-62.139 Y-28.822 E116.02079
G1 X-55.048 Y-24.798 E116.29197
G1 X-55.32 Y-24.559 E116.30401
G1 X-55.593 Y-24.155 E116.32023
G0 F9000 X-55.509 Y-24.089
G0 X-64.687 Y-28.723
G0 X-64.905 Y-29.128
G0 X-65.005 Y-29.09
G1 F4020 X-64.787 Y-28.835 E116.33139
G1 X-65.751 Y-29.382 E116.36825
G1 X-67.925 Y-31.001 E116.45841
G1 X-66.57 Y-31.338 E116.50485
G1 X-65.735 Y-30.867 E116.53673
G1 X-65.234 Y-30.58 E116.55594
G1 X-65.263 Y-30.497 E116.55886
G1 X-65.301 Y-30.01 E116.57511
G1 X-65.214 Y-29.532 E116.59127
G1 X-65.005 Y-29.09 E116.60753
G0 F9000 X-64.666 Y-29.309
;TYPE:WALL-OUTER
G1 F3000 X-64.42 Y-29.021 E116.62013
G1 X-64.105 Y-28.806 E116.63281
G1 X-63.744 Y-28.685 E116.64547
G1 X-63.365 Y-28.66 E116.65811
G1 X-62.99 Y-28.736 E116.67083
G1 X-62.647 Y-28.908 E116.6836
G1 X-62.359 Y-29.162 E116.69637
G1 X-62.239 Y-29.339 E116.70348
G1 X-54.172 Y-24.761 E117.01198
G1 X-54.386 Y-24.718 E117.01924
G1 X-54.729 Y-24.546 E117.03201
G1 X-55.017 Y-24.292 E117.04478
G1 X-55.232 Y-23.974 E117.05755
G1 X-55.359 Y-23.611 E117.07034
G1 X-55.389 Y-23.229 E117.08308
G1 X-55.351 Y-23.019 E117.09018
G1 X-65.969 Y-29.045 E117.49625
G1 X-68.764 Y-31.127 E117.61216
G1 X-68.747 Y-31.208 E117.61492
G1 X-66.512 Y-31.765 E117.69153
G1 X-65.536 Y-31.213 E117.72882
G1 X-64.854 Y-30.823 E117.75495
G1 X-64.745 Y-30.762 E117.75911
G1 X-64.868 Y-30.414 E117.77138
G1 X-64.898 Y-30.031 E117.78416
G1 X-64.83 Y-29.655 E117.79687
G1 X-64.666 Y-29.309 E117.8096
G1 F2400 E113.80960
G0 F9000 X-52.546 Y-23.799
G1 F2400 E117.80960
G1 F3000 X-52.571 Y-23.853 E117.81158
G1 X-51.118 Y-23.028 E117.86716
G1 X-51.572 Y-20.872 E117.94044
G1 X-53.239 Y-21.817 E118.00417
G1 X-53.46 Y-21.944 E118.01265
G1 X-53.138 Y-22.105 E118.02462
G1 X-52.85 Y-22.359 E118.0374
G1 X-52.634 Y-22.677 E118.05018
G1 X-52.508 Y-23.04 E118.06296
G1 X-52.476 Y-23.422 E118.07571
G1 X-52.546 Y-23.799 E118.08846
G1 F2400 E114.08846
G0 F9000 X-52.416 Y-22.039
;TYPE:FILL
G1 F2400 E118.08846
G1 F5220 X-52.262 Y-21.886 E118.09569
G0 F9000 X-65.416 Y-30.326
G1 F5220 X-65.873 Y-30.783 E118.11718
G0 F9000 X-66.459 Y-31.116
;TYPE:SKIN
G1 F3000 X-65.434 Y-30.091 E118.16539
G0 F9000 X-65.304 Y-29.395
G1 F3000 X-66.998 Y-31.089 E118.24507
G0 F9000 X-67.45 Y-30.976
G1 F3000 X-66.851 Y-30.377 E118.27325
G0 F9000 X-66.995 Y-30.183
G0 X-63.821 Y-28.291
G0 X-63.016 Y-28.424
G0 X-62.968 Y-28.19
G1 F3000 X-62.444 Y-27.666 E118.2979
G0 F9000 X-62.561 Y-28.349
G1 F3000 X-61.136 Y-26.924 E118.36492
G0 F9000 X-61.22 Y-28.139
G1 F3000 X-58.52 Y-25.439 E118.49192
G0 F9000 X-58.604 Y-26.655
G1 F3000 X-55.903 Y-23.954 E118.61897
G0 F9000 X-55.672 Y-24.289
G1 F3000 X-57.296 Y-25.913 E118.69536
G0 F9000 X-57.211 Y-24.697
G1 F3000 X-59.912 Y-27.397 E118.82238
G0 F9000 X-59.828 Y-26.181
G1 F3000 X-62.216 Y-28.569 E118.93471
G0 F9000 X-62.375 Y-28.748
G0 X-55.868 Y-25.38
G0 X-55.988 Y-25.17
G1 F3000 X-55.444 Y-24.626 E118.96029
G1 F2400 E114.96029
G0 F9000 X-46.654 Y-20.034
;TYPE:WALL-INNER
G1 F2400 E118.96029
G1 F4020 X-40.613 Y-16.604 E119.19135
G1 X-40.731 Y-16.429 E119.19837
G1 X-40.892 Y-15.969 E119.21458
G1 X-40.93 Y-15.482 E119.23082
G1 X-40.892 Y-15.272 E119.23792
G1 X-43.533 Y-16.77 E119.33891
G1 X-46.654 Y-20.034 E119.48911
G1 F2400 E115.48911
G0 F9000 X-38.052 Y-14.045
G1 F2400 E119.48911
G1 F4020 X-37.685 Y-14.366 E119.50533
G1 X-37.407 Y-14.786 E119.52208
G1 X-37.214 Y-14.676 E119.52947
G1 X-37.485 Y-13.39 E119.57318
G1 X-37.495 Y-13.342 E119.57481
G1 X-37.853 Y-13.544 E119.58848
G1 X-38.413 Y-13.864 E119.60994
G1 X-38.052 Y-14.045 E119.62337
G0 F9000 X-38.277 Y-14.38
;TYPE:WALL-OUTER
G1 F3000 X-37.988 Y-14.633 E119.63614
G1 X-37.773 Y-14.952 E119.64894
G1 X-37.646 Y-15.314 E119.6617
G1 X-37.641 Y-15.38 E119.6639
G1 X-36.762 Y-14.879 E119.69755
G1 X-37.216 Y-12.725 E119.77077
G1 X-43.782 Y-16.45 E120.02185
G1 X-48.828 Y-21.728 E120.26471
G1 X-39.993 Y-16.711 E120.60264
G1 X-40.156 Y-16.567 E120.60987
G1 X-40.37 Y-16.248 E120.62265
G1 X-40.497 Y-15.886 E120.63541
G1 X-40.527 Y-15.503 E120.64819
G1 X-40.459 Y-15.127 E120.6609
G1 X-40.296 Y-14.782 E120.67359
G1 X-40.048 Y-14.492 E120.68628
G1 X-39.733 Y-14.279 E120.69893
G1 X-39.374 Y-14.156 E120.71155
G1 X-38.993 Y-14.132 E120.72424
G1 X-38.619 Y-14.208 E120.73694
G1 X-38.277 Y-14.38 E120.74967
G0 F9000 X-38.006 Y-13.914
;TYPE:FILL
G1 F5220 X-37.726 Y-13.634 E120.76284
G1 F2400 E116.76284
G0 F9000 X-41.039 Y-15.878
;TYPE:SKIN
G1 F2400 E120.76284
G1 F3000 X-42.906 Y-17.745 E120.85066
G0 F9000 X-42.82 Y-16.527
G1 F3000 X-45.524 Y-19.231 E120.97785
G0 F9000 X-45.406 Y-19.441
G0 X-44.097 Y-18.698
G0 X-44.215 Y-18.488
