(Block-name: Header)
(Block-expand: 0)
(Block-enable: 1)
;Generated with Cura_SteamEngine 15.01
; Default start code
(Block-name: block)
(Block-expand: 0)
(Block-enable: 1)
G28 ; Home extruder
G1 Z15 F100
M107 ; Turn off fan
G90 ; Absolute positioning
M82 ; Extruder in absolute mode
M190 S50
; Activate all used extruder
M104 T0 S210
G92 E0 ; Reset extruder position
; Wait for all used extruders to reach temperature
M109 T0 S210
;Layer count: 43
;LAYER:0
M107
G0 F9000 X-59.519 Y-34.289 Z0.3
(Block-name: block)
(Block-expand: 0)
(Block-enable: 1)
;LAYER:1
M106 S127
G1 F2400 E100.22408
G0 F9000 X-52.854 Y-19.315 Z0.5
(Block-name: block)
(Block-expand: 0)
(Block-enable: 1)
;TYPE:WALL-INNER
G1 F2400 E104.22408
G1 F660 X-54.864 Y-20.813 E104.30746
G1 X-54.495 Y-20.607 E104.32151
G1 X-53.82 Y-20.22 E104.34739
G1 X-53.33 Y-19.943 E104.36611
G1 X-52.787 Y-19.635 E104.38688
G1 X-52.854 Y-19.315 E104.39775
G0 F9000 X-53.623 Y-20.568
;TYPE:WALL-OUTER
G1 F540 X-52.336 Y-19.838 E104.44696
G1 X-52.592 Y-18.621 E104.48833
G1 X-60.28 Y-24.349 E104.8072
G1 X-54.766 Y-21.217 E105.01812
G1 X-54.296 Y-20.953 E105.03605
G1 X-53.623 Y-20.568 E105.06183
G1 F2400 E101.06183
G0 F9000 X-39.849 Y-12.292
;TYPE:WALL-INNER
G1 F2400 E105.06183
G1 F660 X-39.094 Y-11.862 E105.09073
G1 X-38.431 Y-11.484 E105.11612
G1 X-38.547 Y-10.931 E105.13491
G1 X-39.849 Y-12.292 E105.19755
G0 F9000 X-38.304 Y-11.597
G0 X-37.98 Y-11.687
;TYPE:WALL-OUTER
G1 F540 X-38.313 Y-10.107 E105.25126
G1 X-42.016 Y-13.979 E105.42946
G1 X-37.98 Y-11.687 E105.58383
;LAYER:2
M106 S239
G1 F2400 E101.58383
G0 F9000 X-53.082 Y-19.433 Z0.7
(Block-name: block)
(Block-expand: 0)
(Block-enable: 1)
;TYPE:WALL-INNER
G1 F2400 E105.58383
G1 F1560 X-61.509 Y-25.712 E105.93336
G1 X-59.791 Y-24.736 E105.99908
G1 X-58.142 Y-23.803 E106.0621
G1 X-56.296 Y-22.754 E106.13272
G1 X-56.277 Y-22.649 E106.13626
G1 X-56.071 Y-22.207 E106.15248
G1 X-55.752 Y-21.836 E106.16876
G1 X-55.349 Y-21.561 E106.18498
G1 X-54.888 Y-21.404 E106.20118
G1 X-54.401 Y-21.373 E106.21741
G1 X-54.008 Y-21.454 E106.23076
G1 X-52.586 Y-20.647 E106.28514
G1 X-52.867 Y-19.311 E106.33055
G1 X-53.082 Y-19.433 E106.33877
G0 F9000 X-53.3 Y-19.097
;TYPE:WALL-OUTER
G1 F1320 X-66.927 Y-29.249 E106.90396
G1 X-55.937 Y-23.01 E107.32428
G1 X-55.893 Y-22.772 E107.33233
G1 X-55.732 Y-22.426 E107.34502
G1 X-55.483 Y-22.137 E107.35771
G1 X-55.169 Y-21.922 E107.37037
G1 X-54.809 Y-21.8 E107.38301
G1 X-54.429 Y-21.776 E107.39567
G1 X-54.054 Y-21.852 E107.4084
G1 X-53.972 Y-21.893 E107.41145
G1 X-53.516 Y-21.636 E107.42886
G1 X-52.135 Y-20.849 E107.48173
G1 X-52.589 Y-18.694 E107.55497
G1 X-53.3 Y-19.097 E107.58216
G0 F9000 X-52.84 Y-20.125
;TYPE:FILL
G1 F1920 X-54.009 Y-21.294 E107.63714
G0 F9000 X-56.268 Y-21.982
G1 F1920 X-57.646 Y-23.36 E107.70196
G0 F9000 X-57.94 Y-23.527
;TYPE:SKIN
G1 F1320 X-56.768 Y-22.354 E107.75711
G0 F9000 X-56.376 Y-22.528
G1 F1320 X-56.632 Y-22.784 E107.76915
G0 F9000 X-55.216 Y-21.369
G1 F1320 X-54.546 Y-20.698 E107.80069
G0 F9000 X-54.524 Y-21.242
G1 F1320 X-52.939 Y-19.657 E107.87524
G0 F9000 X-52.84 Y-20.124
G1 F1320 X-54.013 Y-21.296 E107.9304
G1 F2400 E103.93040
G0 F9000 X-42.324 Y-14.824
;TYPE:WALL-INNER
G1 F2400 E107.93040
G1 F1560 X-40.145 Y-13.588 E108.01372
G1 X-39.415 Y-13.171 E108.04168
G1 X-38.23 Y-12.496 E108.08704
G1 X-38.51 Y-11.166 E108.13224
G1 X-39.201 Y-11.558 E108.15867
G1 X-42.324 Y-14.824 E108.30896
G1 F2400 E104.30896
G0 F9000 X-44.492 Y-16.512
;TYPE:WALL-OUTER
G1 F2400 E108.30896
G1 F1320 X-37.779 Y-12.7 E108.56573
G1 X-38.232 Y-10.549 E108.63884
G1 X-39.451 Y-11.239 E108.68543
G1 X-44.492 Y-16.512 E108.92806
G1 F2400 E104.92806
G0 F9000 X-39.471 Y-13.041
;TYPE:FILL
G1 F2400 E108.92806
G1 F1920 X-38.47 Y-12.04 E108.97514
G0 F9000 X-38.48 Y-11.987
;TYPE:SKIN
G1 F1320 X-39.618 Y-13.124 E109.02865
G0 F9000 X-40.931 Y-13.871
G1 F1320 X-38.579 Y-11.52 E109.13925
G1 F2400 E105.13925
G0 F9000 X-16.645 Y-0.707
;TYPE:WALL-OUTER
G1 F2400 E109.13925
G1 F1320 X-15.508 Y-0.062 E109.18273
G1 X-15.537 Y0.077 E109.18745
G1 X-16.645 Y-0.707 E109.2326
;LAYER:3
M106 S135
G1 F2400 E105.23260
G0 F9000 X-52.666 Y-20.325 Z0.9
(Block-name: block)
(Block-expand: 0)
(Block-enable: 1)
;TYPE:WALL-INNER
G1 F2400 E109.23260
G1 F3300 X-54.452 Y-21.339 E109.30091
G1 X-54.421 Y-21.337 E109.30194
G1 X-53.942 Y-21.435 E109.3182
G1 X-53.506 Y-21.653 E109.33442
G1 X-53.141 Y-21.974 E109.35058
G1 X-53.084 Y-22.058 E109.35396
G1 X-52.385 Y-21.659 E109.38073
G1 X-52.666 Y-20.325 E109.42607
G1 F2400 E105.42607
G0 F9000 X-56.298 Y-22.612
G1 F2400 E109.42607
G1 F3300 X-56.154 Y-22.305 E109.43735
G1 X-59.725 Y-24.333 E109.57394
G1 X-68.147 Y-30.607 E109.92324
G1 X-67.348 Y-30.154 E109.95379
G1 X-66.327 Y-29.578 E109.99278
G1 X-65.721 Y-29.23 E110.01602
G1 X-65.599 Y-28.972 E110.02551
G1 X-65.282 Y-28.603 E110.04169
G1 X-64.88 Y-28.328 E110.05789
G1 X-64.417 Y-28.171 E110.07415
G1 X-63.932 Y-28.14 E110.09032
G1 X-63.836 Y-28.159 E110.09357
G1 X-56.251 Y-23.854 E110.38365
G1 X-56.348 Y-23.577 E110.39341
G1 X-56.386 Y-23.091 E110.40963
G1 X-56.298 Y-22.612 E110.42582
G0 F9000 X-55.914 Y-22.735
;TYPE:WALL-OUTER
G1 F2520 X-55.751 Y-22.389 E110.43855
G1 X-55.503 Y-22.101 E110.45119
G1 X-55.189 Y-21.886 E110.46384
G1 X-54.829 Y-21.764 E110.47649
G1 X-54.449 Y-21.74 E110.48915
G1 X-54.074 Y-21.816 E110.50188
G1 X-53.731 Y-21.988 E110.51464
G1 X-53.444 Y-22.241 E110.52736
G1 X-53.228 Y-22.56 E110.54018
G1 X-53.216 Y-22.593 E110.54134
G1 X-51.933 Y-21.863 E110.59044
G1 X-52.387 Y-19.707 E110.66372
G1 X-59.943 Y-23.996 E110.9527
G1 X-69.358 Y-31.01 E111.34319
G1 X-69.341 Y-31.091 E111.34594
G1 X-68.542 Y-31.289 E111.37332
G1 X-66.128 Y-29.924 E111.46556
G1 X-65.413 Y-29.515 E111.49296
G1 X-65.26 Y-29.192 E111.50484
G1 X-65.013 Y-28.904 E111.51746
G1 X-64.699 Y-28.689 E111.53012
G1 X-64.338 Y-28.567 E111.54279
G1 X-63.959 Y-28.543 E111.55542
G1 X-63.769 Y-28.581 E111.56187
G1 X-55.72 Y-24.012 E111.8697
G1 X-55.826 Y-23.857 E111.87595
G1 X-55.953 Y-23.494 E111.88874
G1 X-55.983 Y-23.112 E111.90149
G1 X-55.914 Y-22.735 E111.91423
G1 F2400 E107.91423
G0 F9000 X-53.234 Y-20.809
;TYPE:FILL
G1 F2400 E111.91423
G1 F4140 X-52.567 Y-21.476 E111.94561
G0 F9000 X-52.555 Y-21.597
;TYPE:SKIN
G1 F2520 X-53.303 Y-20.849 E111.98079
G0 F9000 X-52.943 Y-20.644
G1 F2520 X-52.689 Y-20.898 E111.99274
G0 F9000 X-52.916 Y-21.802
G1 F2520 X-53.664 Y-21.054 E112.02792
G1 F2400 E108.02792
G0 F9000 X-56.471 Y-22.773
G1 F2400 E112.02792
G1 F2520 X-56.732 Y-22.795 E112.03169
G1 X-56.51 Y-23.299 E112.05001
G0 F9000 X-56.526 Y-23.849
G1 F2520 X-57.273 Y-23.102 E112.08514
G0 F9000 X-57.634 Y-23.307
G1 F2520 X-56.887 Y-24.054 E112.12028
G0 F9000 X-57.248 Y-24.259
G1 F2520 X-57.994 Y-23.512 E112.15539
G0 F9000 X-58.355 Y-23.717
G1 F2520 X-57.608 Y-24.464 E112.19053
G0 F9000 X-57.969 Y-24.669
G1 F2520 X-58.716 Y-23.921 E112.22569
G0 F9000 X-59.077 Y-24.126
G1 F2520 X-58.33 Y-24.873 E112.26083
G0 F9000 X-58.691 Y-25.078
G1 F2520 X-59.438 Y-24.331 E112.29596
G0 F9000 X-59.784 Y-24.551
G1 F2520 X-59.052 Y-25.283 E112.33039
G0 F9000 X-59.413 Y-25.488
G1 F2520 X-60.108 Y-24.792 E112.36311
G0 F9000 X-60.433 Y-25.034
G1 F2520 X-59.773 Y-25.693 E112.39413
G0 F9000 X-60.134 Y-25.898
G1 F2520 X-60.756 Y-25.275 E112.42341
G0 F9000 X-61.08 Y-25.517
G1 F2520 X-60.495 Y-26.103 E112.45095
G0 F9000 X-60.856 Y-26.307
G1 F2520 X-61.567 Y-25.879 E112.47676
G1 X-61.397 Y-26.615 E112.50081
G1 X-62.215 Y-26.362 E112.52317
G1 X-62.119 Y-27.025 E112.54378
G1 X-62.863 Y-26.846 E112.56261
G1 X-62.841 Y-27.434 E112.57979
G1 X-63.512 Y-27.329 E112.59515
G1 X-63.562 Y-27.844 E112.60883
G1 X-64.16 Y-27.812 E112.62083
G1 X-64.233 Y-28.021 E112.62819
G1 F2400 E108.62819
G0 F9000 X-44.795 Y-17.351
;TYPE:WALL-INNER
G1 F2400 E112.62819
G1 F3300 X-41.806 Y-15.655 E112.7425
G1 X-41.514 Y-15.489 E112.75367
G1 X-41.524 Y-15.366 E112.75777
G1 X-41.437 Y-14.885 E112.77403
G1 X-41.228 Y-14.445 E112.79023
G1 X-40.91 Y-14.075 E112.80646
G1 X-40.507 Y-13.801 E112.82267
G1 X-40.047 Y-13.643 E112.83884
G1 X-39.559 Y-13.612 E112.85511
G1 X-39.082 Y-13.71 E112.8713
G1 X-38.706 Y-13.896 E112.88526
G1 X-38.028 Y-13.51 E112.9112
G1 X-38.309 Y-12.177 E112.95651
G1 X-38.783 Y-12.448 E112.97467
G1 X-41.674 Y-14.088 E113.08522
G1 X-44.795 Y-17.351 E113.2354
G0 F9000 X-41.42 Y-15.409
G0 X-41.121 Y-15.386
;TYPE:WALL-OUTER
G1 F2520 X-41.053 Y-15.009 E113.24814
G1 X-40.889 Y-14.665 E113.26082
G1 X-40.641 Y-14.376 E113.27349
G1 X-40.327 Y-14.162 E113.28612
G1 X-39.968 Y-14.039 E113.29875
G1 X-39.587 Y-14.015 E113.31144
G1 X-39.213 Y-14.091 E113.32414
G1 X-38.871 Y-14.261 E113.33684
G1 X-38.74 Y-14.376 E113.34264
G1 X-37.577 Y-13.713 E113.38716
G1 X-38.031 Y-11.56 E113.46035
G1 X-41.923 Y-13.768 E113.60918
G1 X-46.968 Y-19.044 E113.85197
G1 X-41.095 Y-15.71 E114.07659
G1 X-41.121 Y-15.386 E114.0874
G0 F9000 X-41.625 Y-15.135
;TYPE:FILL
G1 F4140 X-42.062 Y-14.698 E114.10795
G0 F9000 X-42.83 Y-15.502
G1 F4140 X-42.463 Y-15.869 E114.12522
G0 F9000 X-43.465 Y-16.437
G1 F4140 X-43.598 Y-16.304 E114.13147
G0 F9000 X-41.206 Y-13.983
G1 F4140 X-41.104 Y-14.085 E114.13627
G0 F9000 X-40.204 Y-13.414
G1 F4140 X-40.102 Y-13.516 E114.14107
G0 F9000 X-39.202 Y-12.845
G1 F4140 X-38.454 Y-13.593 E114.17625
G0 F9000 X-38.482 Y-13.609
;TYPE:SKIN
G1 F2520 X-39.23 Y-12.861 E114.21143
G0 F9000 X-38.869 Y-12.656
G1 F2520 X-38.214 Y-13.311 E114.24224
G0 F9000 X-38.365 Y-12.594
G1 F2520 X-38.508 Y-12.451 E114.24897
G0 F9000 X-39.591 Y-13.066
G1 F2520 X-39.414 Y-13.526 E114.27249
G1 X-39.951 Y-13.271 E114.29227
G0 F9000 X-41.24 Y-14.245
G1 F2520 X-41.555 Y-14.213 E114.29951
G1 X-41.529 Y-14.804 E114.31166
G1 X-42.13 Y-14.769 E114.32988
G1 X-41.91 Y-15.555 E114.35519
G1 X-42.683 Y-15.348 E114.37655
G1 X-42.632 Y-15.965 E114.3939
G1 X-43.236 Y-15.926 E114.40734
G1 X-43.354 Y-16.374 E114.41678
G1 X-43.651 Y-16.359 E114.42667
G1 F2400 E110.42667
G0 F9000 X-18.252 Y-2.286
;TYPE:WALL-INNER
G1 F2400 E114.42667
G1 F3300 X-17.258 Y-1.722 E114.46468
G1 X-16.665 Y-1.384 E114.48738
G1 X-15.759 Y-0.87 E114.52203
G1 X-15.823 Y-0.566 E114.53236
G1 X-18.252 Y-2.286 E114.63135
G0 F9000 X-15.631 Y-0.983
G0 X-15.307 Y-1.074
;TYPE:WALL-OUTER
G1 F2520 X-15.557 Y0.113 E114.6717
G1 X-25.015 Y-6.584 E115.05715
G1 X-15.307 Y-1.074 E115.42842
G0 F9000 X-15.631 Y-0.983
G0 X-18.435 Y-2.506
G0 X-18.384 Y-2.594
;TYPE:SKIN
G1 F2520 X-18.82 Y-2.442 E115.44109
G1 X-18.926 Y-2.901 E115.45229
G1 X-19.482 Y-2.911 E115.46209
G1 X-19.648 Y-3.31 E115.4705
G1 X-20.144 Y-3.38 E115.47754
G1 X-20.37 Y-3.72 E115.48314
G1 X-20.641 Y-3.731 E115.49216
;LAYER:4
M106 S127
G1 F2400 E111.49216
G0 F9000 X-52.43 Y-21.509 Z1.1
(Block-name: block)
(Block-expand: 0)
(Block-enable: 1)
;TYPE:WALL-INNER
G1 F2400 E115.49216
G1 F4020 X-52.466 Y-21.338 E115.49798
G1 X-52.998 Y-21.64 E115.51832
G1 X-53.305 Y-21.813 E115.53004
G1 X-53.162 Y-21.939 E115.53638
G1 X-52.887 Y-22.343 E115.55264
G1 X-52.727 Y-22.804 E115.56887
G1 X-52.713 Y-22.973 E115.57451
G1 X-52.184 Y-22.673 E115.59473
G1 X-52.43 Y-21.509 E115.6343
G1 F2400 E111.63430
G0 F9000 X-56.207 Y-24.002
G1 F2400 E115.63430
G1 F4020 X-56.364 Y-23.553 E115.65012
G1 X-64.447 Y-28.14 E115.95924
G1 X-63.952 Y-28.104 E115.97575
G1 X-63.472 Y-28.202 E115.99204
G1 X-63.036 Y-28.42 E116.00825
G1 X-62.753 Y-28.669 E116.02079
G1 X-55.662 Y-24.645 E116.29197
G1 X-55.934 Y-24.406 E116.30401
G1 X-56.207 Y-24.002 E116.32023
G0 F9000 X-56.123 Y-23.936
G0 X-65.301 Y-28.57
G0 X-65.519 Y-28.975
G0 X-65.619 Y-28.937
G1 F4020 X-65.401 Y-28.682 E116.33139
G1 X-66.365 Y-29.229 E116.36825
G1 X-68.539 Y-30.848 E116.45841
G1 X-67.184 Y-31.185 E116.50485
G1 X-66.349 Y-30.714 E116.53673
G1 X-65.848 Y-30.427 E116.55594
G1 X-65.877 Y-30.344 E116.55886
G1 X-65.915 Y-29.857 E116.57511
G1 X-65.828 Y-29.379 E116.59127
G1 X-65.619 Y-28.937 E116.60753
G0 F9000 X-65.28 Y-29.156
;TYPE:WALL-OUTER
G1 F3000 X-65.034 Y-28.868 E116.62013
G1 X-64.719 Y-28.653 E116.63281
G1 X-64.358 Y-28.532 E116.64547
G1 X-63.979 Y-28.507 E116.65811
G1 X-63.604 Y-28.583 E116.67083
G1 X-63.261 Y-28.755 E116.6836
G1 X-62.973 Y-29.009 E116.69637
G1 X-62.853 Y-29.186 E116.70348
G1 X-54.786 Y-24.608 E117.01198
G1 X-55 Y-24.565 E117.01924
G1 X-55.343 Y-24.393 E117.03201
G1 X-55.631 Y-24.139 E117.04478
G1 X-55.846 Y-23.821 E117.05755
G1 X-55.973 Y-23.458 E117.07034
G1 X-56.003 Y-23.076 E117.08308
G1 X-55.965 Y-22.866 E117.09018
G1 X-66.583 Y-28.892 E117.49625
G1 X-69.378 Y-30.974 E117.61216
G1 X-69.361 Y-31.055 E117.61492
G1 X-67.126 Y-31.612 E117.69153
G1 X-66.15 Y-31.06 E117.72882
G1 X-65.468 Y-30.67 E117.75495
G1 X-65.359 Y-30.609 E117.75911
G1 X-65.482 Y-30.261 E117.77138
G1 X-65.512 Y-29.878 E117.78416
G1 X-65.444 Y-29.502 E117.79687
G1 X-65.28 Y-29.156 E117.8096
G1 F2400 E113.80960
G0 F9000 X-53.16 Y-23.646
G1 F2400 E117.80960
G1 F3000 X-53.185 Y-23.7 E117.81158
G1 X-51.732 Y-22.875 E117.86716
G1 X-52.186 Y-20.719 E117.94044
G1 X-53.853 Y-21.664 E118.00417
G1 X-54.074 Y-21.791 E118.01265
G1 X-53.752 Y-21.952 E118.02462
G1 X-53.464 Y-22.206 E118.0374
G1 X-53.248 Y-22.524 E118.05018
G1 X-53.122 Y-22.887 E118.06296
G1 X-53.09 Y-23.269 E118.07571
G1 X-53.16 Y-23.646 E118.08846
G1 F2400 E114.08846
G0 F9000 X-53.03 Y-21.886
;TYPE:FILL
G1 F2400 E118.08846
G1 F5220 X-52.876 Y-21.733 E118.09569
G0 F9000 X-66.03 Y-30.173
G1 F5220 X-66.487 Y-30.63 E118.11718
G0 F9000 X-67.073 Y-30.963
;TYPE:SKIN
G1 F3000 X-66.048 Y-29.938 E118.16539
G0 F9000 X-65.918 Y-29.242
G1 F3000 X-67.612 Y-30.936 E118.24507
G0 F9000 X-68.064 Y-30.823
G1 F3000 X-67.465 Y-30.224 E118.27325
G0 F9000 X-67.609 Y-30.03
G0 X-64.435 Y-28.138
G0 X-63.63 Y-28.271
G0 X-63.582 Y-28.037
G1 F3000 X-63.058 Y-27.513 E118.2979
G0 F9000 X-63.175 Y-28.196
G1 F3000 X-61.75 Y-26.771 E118.36492
G0 F9000 X-61.834 Y-27.986
G1 F3000 X-59.134 Y-25.286 E118.49192
G0 F9000 X-59.218 Y-26.502
G1 F3000 X-56.517 Y-23.801 E118.61897
G0 F9000 X-56.286 Y-24.136
G1 F3000 X-57.91 Y-25.76 E118.69536
G0 F9000 X-57.825 Y-24.544
G1 F3000 X-60.526 Y-27.244 E118.82238
G0 F9000 X-60.442 Y-26.028
G1 F3000 X-62.83 Y-28.416 E118.93471
G0 F9000 X-62.989 Y-28.595
G0 X-56.482 Y-25.227
G0 X-56.602 Y-25.017
G1 F3000 X-56.058 Y-24.473 E118.96029
G1 F2400 E114.96029
G0 F9000 X-47.268 Y-19.881
;TYPE:WALL-INNER
G1 F2400 E118.96029
G1 F4020 X-41.227 Y-16.451 E119.19135
G1 X-41.345 Y-16.276 E119.19837
G1 X-41.506 Y-15.816 E119.21458
G1 X-41.544 Y-15.329 E119.23082
G1 X-41.506 Y-15.119 E119.23792
G1 X-44.147 Y-16.617 E119.33891
G1 X-47.268 Y-19.881 E119.48911
G1 F2400 E115.48911
G0 F9000 X-38.666 Y-13.892
G1 F2400 E119.48911
G1 F4020 X-38.299 Y-14.213 E119.50533
G1 X-38.021 Y-14.633 E119.52208
G1 X-37.828 Y-14.523 E119.52947
G1 X-38.099 Y-13.237 E119.57318
G1 X-38.109 Y-13.189 E119.57481
G1 X-38.467 Y-13.391 E119.58848
G1 X-39.027 Y-13.711 E119.60994
G1 X-38.666 Y-13.892 E119.62337
G0 F9000 X-38.891 Y-14.227
;TYPE:WALL-OUTER
G1 F3000 X-38.602 Y-14.48 E119.63614
G1 X-38.387 Y-14.799 E119.64894
G1 X-38.26 Y-15.161 E119.6617
G1 X-38.255 Y-15.227 E119.6639
G1 X-37.376 Y-14.726 E119.69755
G1 X-37.83 Y-12.572 E119.77077
G1 X-44.396 Y-16.297 E120.02185
G1 X-49.442 Y-21.575 E120.26471
G1 X-40.607 Y-16.558 E120.60264
G1 X-40.77 Y-16.414 E120.60987
G1 X-40.984 Y-16.095 E120.62265
G1 X-41.111 Y-15.733 E120.63541
G1 X-41.141 Y-15.35 E120.64819
G1 X-41.073 Y-14.974 E120.6609
G1 X-40.91 Y-14.629 E120.67359
G1 X-40.662 Y-14.339 E120.68628
G1 X-40.347 Y-14.126 E120.69893
G1 X-39.988 Y-14.003 E120.71155
G1 X-39.607 Y-13.979 E120.72424
G1 X-39.233 Y-14.055 E120.73694
G1 X-38.891 Y-14.227 E120.74967
G0 F9000 X-38.62 Y-13.761
;TYPE:FILL
G1 F5220 X-38.34 Y-13.481 E120.76284
G1 F2400 E116.76284
G0 F9000 X-41.653 Y-15.725
;TYPE:SKIN
G1 F2400 E120.76284
G1 F3000 X-43.52 Y-17.592 E120.85066
G0 F9000 X-43.434 Y-16.374
G1 F3000 X-46.138 Y-19.078 E120.97785
G0 F9000 X-46.02 Y-19.288
G0 X-44.711 Y-18.545
G0 X-44.829 Y-18.335
G1 F3000 X-42.126 Y-15.633 E121.10496
G0 F9000 X-41.531 Y-16.169
G1 F3000 X-42.211 Y-16.849 E121.13695
G1 F2400 E117.13695
G0 F9000 X-26.616 Y-8.159
;TYPE:WALL-INNER
G1 F2400 E121.13695
G1 F4020 X-18.617 Y-3.618 E121.44288
G1 X-17.907 Y-3.218 E121.46998
G1 X-17.293 Y-2.867 E121.49351
