(Block-name: Header)
(Block-expand: 0)
(Block-enable: 1)
;Generated with Cura_SteamEngine 15.01
; Default start code
(Block-name: block)
(Block-expand: 0)
(Block-enable: 1)
G28 ; Home extruder
G1 Z15 F100
M107 ; Turn off fan
G90 ; Absolute positioning
M82 ; Extruder in absolute mode
M190 S50
; Activate all used extruder
M104 T0 S210
G92 E0 ; Reset extruder position
; Wait for all used extruders to reach temperature
M109 T0 S210
;Layer count: 86
;LAYER:0
M107
G0 F9000 X-80.802 Y-35.143 Z0.3
(Block-name: block)
(Block-expand: 0)
(Block-enable: 1)
;TYPE:WALL-OUTER
G1 F2400 E55.30378
G1 F1800 X-75.829 Y-20.819 E55.38176
G1 X-75.941 Y-20.287 E55.40888
G1 X-77.188 Y-21.591 E55.4989
;LAYER:1
M106 S127
G1 F2400 E51.49890
G0 F9000 X-104.506 Y-37.345 Z0.5
(Block-name: block)
(Block-expand: 0)
(Block-enable: 1)
;TYPE:WALL-OUTER
G1 F2400 E55.49890
G1 F540 X-109.475 Y-41.046 E55.70497
G1 X-104.34 Y-38.131 E55.90136
G1 X-104.506 Y-37.345 E55.92808
G0 F9000 X-104.822 Y-37.754
;TYPE:FILL
G1 F720 X-104.509 Y-38.067 E55.9428
G0 F9000 X-105.511 Y-38.636
G1 F720 X-105.722 Y-38.425 E55.95273
G0 F9000 X-106.513 Y-39.205
G1 F720 X-106.619 Y-39.092 E55.95791
G1 X-106.397 Y-39.023 E55.96309
G1 X-105.962 Y-38.892 E55.96996
G1 X-105.803 Y-38.485 E55.97861
G1 X-105.24 Y-38.483 E55.98891
G1 X-105.155 Y-38.003 E56.00099
G1 X-104.633 Y-37.958 E56.01475
G1 X-104.668 Y-37.64 E56.02539
G1 F2400 E52.02539
G0 F9000 X-77.489 Y-22.428
;TYPE:WALL-INNER
G1 F2400 E56.02539
G1 F660 X-76.079 Y-21.628 E56.07931
G1 X-76.195 Y-21.075 E56.09811
G1 X-77.489 Y-22.428 E56.16038
G0 F9000 X-75.952 Y-21.74
G0 X-75.628 Y-21.831
;TYPE:WALL-OUTER
G1 F540 X-75.961 Y-20.251 E56.21408
G1 X-79.664 Y-24.124 E56.3923
G1 X-75.628 Y-21.831 E56.54669
;LAYER:2
M106 S255
G1 F2400 E52.54669
G0 F9000 X-104.788 Y-38.003 Z0.7
(Block-name: block)
(Block-expand: 0)
(Block-enable: 1)
;TYPE:WALL-INNER
G1 F2400 E56.54669
G1 F1320 X-110.697 Y-42.405 E56.79177
G1 X-107.718 Y-40.714 E56.9057
G1 X-106.602 Y-40.084 E56.94832
G1 X-104.59 Y-38.941 E57.02529
G1 X-104.788 Y-38.003 E57.05717
G0 F9000 X-104.139 Y-39.144
;TYPE:WALL-OUTER
G1 F1080 X-104.526 Y-37.309 E57.11955
G1 X-116.111 Y-45.94 E57.60005
G1 X-104.139 Y-39.144 E58.05792
G0 F9000 X-104.463 Y-39.053
G0 X-105.925 Y-39.025
;TYPE:FILL
G1 F1560 X-107.11 Y-40.21 E58.11366
G0 F9000 X-107.555 Y-40.463
;TYPE:SKIN
G1 F1080 X-106.68 Y-39.588 E58.15481
G0 F9000 X-106.247 Y-39.721
G1 F1080 X-104.861 Y-38.335 E58.22001
G0 F9000 X-104.762 Y-38.802
G1 F1080 X-104.941 Y-38.98 E58.2284
G1 F2400 E54.22840
G0 F9000 X-79.965 Y-24.961
;TYPE:WALL-INNER
G1 F2400 E58.22840
G1 F1320 X-75.878 Y-22.64 E58.38473
G1 X-76.215 Y-21.04 E58.43911
G1 X-79.965 Y-24.961 E58.61957
G1 F2400 E54.61957
G0 F9000 X-82.139 Y-26.655
;TYPE:WALL-OUTER
G1 F2400 E58.61957
G1 F1080 X-75.427 Y-22.844 E58.87628
G1 X-75.981 Y-20.216 E58.96561
G1 X-82.139 Y-26.655 E59.26195
G1 F2400 E55.26195
G0 F9000 X-78.035 Y-23.705
;TYPE:FILL
G1 F2400 E59.26195
G1 F1560 X-76.187 Y-21.857 E59.34887
G0 F9000 X-76.143 Y-22.062
;TYPE:SKIN
G1 F1080 X-77.46 Y-23.378 E59.4108
G0 F9000 X-78.768 Y-24.122
G1 F1080 X-76.242 Y-21.595 E59.52964
G0 F9000 X-76.045 Y-22.529
G1 F1080 X-76.15 Y-22.634 E59.53458
;LAYER:3
M106 S173
G1 F2400 E55.53458
G0 F9000 X-104.808 Y-37.968 Z0.9
(Block-name: block)
(Block-expand: 0)
(Block-enable: 1)
;TYPE:WALL-INNER
G1 F2400 E59.53458
G1 F2760 X-117.331 Y-47.297 E60.05396
G1 X-109.126 Y-42.639 E60.36777
G1 X-107.499 Y-41.719 E60.42994
G1 X-104.39 Y-39.952 E60.54888
G1 X-104.808 Y-37.968 E60.61631
G0 F9000 X-104.546 Y-37.274
;TYPE:WALL-OUTER
G1 F2160 X-122.744 Y-50.831 E61.37108
G1 X-103.938 Y-40.156 E62.09031
G1 X-104.546 Y-37.274 E62.18828
G0 F9000 X-105.088 Y-38.351
;TYPE:SKIN
G1 F2160 X-104.814 Y-38.626 E62.20119
G0 F9000 X-105.413 Y-38.592
G1 F2160 X-104.663 Y-39.343 E62.23649
G0 F9000 X-104.638 Y-39.933
G1 F2160 X-105.737 Y-38.834 E62.28818
G0 F9000 X-106.061 Y-39.075
G1 F2160 X-104.999 Y-40.138 E62.33816
G0 F9000 X-105.359 Y-40.343
G1 F2160 X-106.385 Y-39.317 E62.38642
G0 F9000 X-106.709 Y-39.559
G1 F2160 X-105.721 Y-40.548 E62.43292
G0 F9000 X-106.081 Y-40.753
G1 F2160 X-107.034 Y-39.8 E62.47774
G0 F9000 X-107.357 Y-40.042
G1 F2160 X-106.442 Y-40.958 E62.52081
G0 F9000 X-106.803 Y-41.162
G1 F2160 X-107.682 Y-40.283 E62.56215
G0 F9000 X-108.006 Y-40.525
G1 F2160 X-107.164 Y-41.367 E62.60176
G0 F9000 X-107.524 Y-41.572
G1 F2160 X-108.33 Y-40.766 E62.63967
G0 F9000 X-108.654 Y-41.008
G1 F2160 X-107.886 Y-41.777 E62.67582
G0 F9000 X-108.246 Y-41.982
G1 F2160 X-108.979 Y-41.249 E62.71029
G0 F9000 X-109.303 Y-41.491
G1 F2160 X-108.607 Y-42.187 E62.74303
G0 F9000 X-108.968 Y-42.391
G1 F2160 X-109.627 Y-41.733 E62.77401
G0 F9000 X-109.951 Y-41.974
G1 F2160 X-109.329 Y-42.596 E62.80326
G0 F9000 X-109.69 Y-42.801
G1 F2160 X-110.275 Y-42.216 E62.83078
G0 F9000 X-110.6 Y-42.457
G1 F2160 X-110.231 Y-43.109 E62.85657
G1 X-111.086 Y-42.82 E62.88066
G1 X-110.953 Y-43.519 E62.90302
G1 X-111.734 Y-43.303 E62.92364
G1 X-111.675 Y-43.928 E62.94254
G1 X-112.382 Y-43.786 E62.95969
G1 X-112.396 Y-44.338 E62.97511
G1 X-113.031 Y-44.268 E62.98882
G1 X-113.118 Y-44.748 E63.00086
G1 X-113.679 Y-44.751 E63.01117
G1 X-113.84 Y-45.157 E63.01971
G1 X-114.327 Y-45.234 E63.02651
G1 X-114.38 Y-45.464 E63.03436
G1 F2400 E59.03436
G0 F9000 X-82.443 Y-27.496
;TYPE:WALL-INNER
G1 F2400 E63.03436
G1 F2760 X-78.802 Y-25.43 E63.1736
G1 X-77.857 Y-24.89 E63.2098
G1 X-77.384 Y-24.624 E63.22785
G1 X-75.678 Y-23.652 E63.29316
G1 X-76.235 Y-21.004 E63.38316
G1 X-82.443 Y-27.496 E63.68192
G1 F2400 E59.68192
G0 F9000 X-84.614 Y-29.187
;TYPE:WALL-OUTER
G1 F2400 E63.68192
G1 F2160 X-75.226 Y-23.856 E64.04099
G1 X-76.001 Y-20.18 E64.16595
G1 X-84.614 Y-29.187 E64.58044
G1 F2400 E60.58044
G0 F9000 X-81.298 Y-26.503
;TYPE:SKIN
G1 F2400 E64.58044
G1 F2160 X-81.001 Y-26.518 E64.58593
G1 X-80.884 Y-26.07 E64.59537
G1 X-80.28 Y-26.108 E64.60875
G1 X-80.331 Y-25.491 E64.6261
G1 X-79.559 Y-25.698 E64.64743
G1 X-79.916 Y-25.057 E64.67184
G0 F9000 X-79.64 Y-24.768
G1 F2160 X-79.017 Y-25.39 E64.70112
G0 F9000 X-78.657 Y-25.185
G1 F2160 X-79.362 Y-24.479 E64.7343
G0 F9000 X-79.086 Y-24.19
G1 F2160 X-78.295 Y-24.981 E64.77151
G0 F9000 X-77.935 Y-24.776
G1 F2160 X-78.809 Y-23.901 E64.81264
G0 F9000 X-78.533 Y-23.612
G1 F2160 X-77.574 Y-24.571 E64.85775
G0 F9000 X-77.214 Y-24.365
G1 F2160 X-78.256 Y-23.322 E64.90679
G0 F9000 X-77.98 Y-23.033
G1 F2160 X-76.853 Y-24.16 E64.9598
G0 F9000 X-76.492 Y-23.955
G1 F2160 X-77.704 Y-22.744 E65.01678
G0 F9000 X-77.427 Y-22.455
G1 F2160 X-76.132 Y-23.75 E65.0777
G0 F9000 X-75.864 Y-23.453
G1 F2160 X-77.151 Y-22.166 E65.13823
G0 F9000 X-76.874 Y-21.876
G1 F2160 X-76.015 Y-22.736 E65.17866
G0 F9000 X-76.166 Y-22.019
G1 F2160 X-76.598 Y-21.587 E65.19898
;LAYER:4
M106 S127
G1 F2400 E61.19898
G0 F9000 X-104.828 Y-37.932 Z1.1
(Block-name: block)
(Block-expand: 0)
(Block-enable: 1)
;TYPE:WALL-INNER
G1 F2400 E65.19898
G1 F4020 X-123.969 Y-52.192 E65.99286
G1 X-110.861 Y-44.751 E66.49419
G1 X-110.653 Y-44.633 E66.50214
G1 X-110.565 Y-44.533 E66.50657
G1 X-109.901 Y-44.08 E66.5333
G1 X-109.337 Y-43.889 E66.55311
G1 X-107.528 Y-42.862 E66.6223
G1 X-106.795 Y-42.443 E66.65038
G1 X-104.189 Y-40.964 E66.75004
G1 X-104.828 Y-37.932 E66.8531
G0 F9000 X-104.566 Y-37.238
;TYPE:WALL-OUTER
G1 F3000 X-129.377 Y-55.722 E67.88215
G1 X-110.396 Y-44.946 E68.6081
G1 X-110.298 Y-44.835 E68.61303
G1 X-109.721 Y-44.441 E68.63627
G1 X-109.174 Y-44.256 E68.65547
G1 X-103.737 Y-41.168 E68.86344
G1 X-104.566 Y-37.238 E68.99703
G0 F9000 X-104.883 Y-38.356
;TYPE:SKIN
G1 F3000 X-111.454 Y-44.928 E69.30613
G0 F9000 X-112.763 Y-45.671
G1 F3000 X-106.281 Y-39.189 E69.61103
G0 F9000 X-104.587 Y-39.758
G1 F3000 X-107.534 Y-42.704 E69.74962
G0 F9000 X-106.223 Y-41.96
G1 F3000 X-104.488 Y-40.224 E69.83125
G0 F9000 X-104.39 Y-40.692
G1 F3000 X-104.914 Y-41.216 E69.8559
G0 F9000 X-104.685 Y-39.29
G1 F3000 X-108.844 Y-43.449 E70.05153
G0 F9000 X-109.89 Y-43.93
G1 F3000 X-104.784 Y-38.824 E70.2917
G0 F9000 X-108.499 Y-40.842
G1 F3000 X-114.071 Y-46.413 E70.55376
G0 F9000 X-115.155 Y-45.801
G1 F3000 X-117.995 Y-48.64 E70.68732
G0 F9000 X-117.374 Y-47.453
G1 F3000 X-119.303 Y-49.383 E70.77808
G0 F9000 X-119.593 Y-49.106
G1 F3000 X-120.611 Y-50.125 E70.82599
G0 F9000 X-116.687 Y-47.898
G1 F3000 X-112.937 Y-44.147 E71.0024
G0 F9000 X-110.718 Y-42.495
G1 F3000 X-115.379 Y-47.156 E71.22164
G1 F2400 E67.22164
G0 F9000 X-84.92 Y-30.028
;TYPE:WALL-INNER
G1 F2400 E71.22164
G1 F4020 X-79.478 Y-26.941 E71.42974
G1 X-78.297 Y-26.266 E71.47498
G1 X-77.707 Y-25.934 E71.4975
G1 X-77.2 Y-25.645 E71.51691
G1 X-75.476 Y-24.666 E71.58285
G1 X-76.256 Y-20.968 E71.70855
G1 X-84.92 Y-30.028 E72.12549
G1 F2400 E68.12549
G0 F9000 X-87.09 Y-31.719
;TYPE:WALL-OUTER
G1 F2400 E72.12549
G1 F3000 X-75.025 Y-24.869 E72.58694
G1 X-76.02 Y-20.15 E72.74735
G1 X-76.036 Y-20.159 E72.74796
G1 X-87.09 Y-31.719 E73.27994
G1 F2400 E69.27994
G0 F9000 X-83.874 Y-29.227
;TYPE:SKIN
G1 F2400 E73.27994
G1 F3000 X-76.263 Y-21.616 E73.63794
G0 F9000 X-76.165 Y-22.084
G1 F3000 X-82.673 Y-28.592 E73.94405
G0 F9000 X-81.365 Y-27.849
G1 F3000 X-76.066 Y-22.55 E74.1933
G0 F9000 X-75.968 Y-23.018
G1 F3000 X-80.056 Y-27.106 E74.38559
G0 F9000 X-78.748 Y-26.364
G1 F3000 X-75.869 Y-23.484 E74.52103
G0 F9000 X-75.77 Y-23.952
G1 F3000 X-77.44 Y-25.621 E74.59956
G0 F9000 X-76.132 Y-24.879
G1 F3000 X-75.671 Y-24.419 E74.62122
;LAYER:5
G1 F2400 E70.62122
G0 F9000 X-104.81 Y-38.075 Z1.3
(Block-name: block)
(Block-expand: 0)
(Block-enable: 1)
;TYPE:WALL-INNER
G1 F2400 E74.62122
G1 F4020 X-105.978 Y-38.737 E74.66588
G1 X-130.612 Y-57.09 E75.6876
G1 X-111.548 Y-46.27 E76.41668
G1 X-111.473 Y-45.86 E76.43054
G1 X-111.124 Y-45.121 E76.45772
G1 X-110.595 Y-44.502 E76.48481
G1 X-109.921 Y-44.044 E76.51191
G1 X-109.15 Y-43.782 E76.53899
G1 X-108.337 Y-43.73 E76.56609
G1 X-107.536 Y-43.894 E76.59328
G1 X-107.445 Y-43.94 E76.59667
G1 X-103.988 Y-41.978 E76.72888
G1 X-104.81 Y-38.075 E76.86154
G0 F9000 X-106.199 Y-38.403
;TYPE:WALL-OUTER
G1 F3000 X-136.015 Y-60.617 E78.0982
G1 X-111.188 Y-46.526 E79.04768
G1 X-111.089 Y-45.983 E79.06604
G1 X-110.785 Y-45.34 E79.08969
G1 X-110.326 Y-44.803 E79.11319
G1 X-109.741 Y-44.405 E79.13672
G1 X-109.071 Y-44.178 E79.16025
G1 X-108.365 Y-44.133 E79.18378
G1 X-107.667 Y-44.275 E79.20747
G1 X-107.432 Y-44.392 E79.2162
G1 X-103.536 Y-42.181 E79.3652
G1 X-104.532 Y-37.458 E79.52574
G1 X-106.199 Y-38.403 E79.58948
G0 F9000 X-105.783 Y-38.788
;TYPE:SKIN
G1 F3000 X-104.543 Y-40.028 E79.6478
G0 F9000 X-104.392 Y-40.745
G1 F3000 X-106.12 Y-39.017 E79.72908
G0 F9000 X-106.444 Y-39.259
G1 F3000 X-104.241 Y-41.461 E79.83268
G0 F9000 X-104.282 Y-41.986
G1 F3000 X-106.768 Y-39.5 E79.94961
G0 F9000 X-107.092 Y-39.742
G1 F3000 X-104.644 Y-42.19 E80.06476
G0 F9000 X-105.004 Y-42.395
G1 F3000 X-107.417 Y-39.983 E80.17824
G0 F9000 X-107.741 Y-40.224
G1 F3000 X-105.366 Y-42.6 E80.28997
G0 F9000 X-105.726 Y-42.805
G1 F3000 X-108.065 Y-40.466 E80.39999
G0 F9000 X-108.389 Y-40.707
G1 F3000 X-106.088 Y-43.009 E80.50825
G0 F9000 X-106.448 Y-43.214
G1 F3000 X-108.714 Y-40.949 E80.61481
G0 F9000 X-109.038 Y-41.19
G1 F3000 X-106.809 Y-43.419 E80.71965
G0 F9000 X-107.17 Y-43.624
G1 F3000 X-109.362 Y-41.431 E80.82278
G0 F9000 X-109.687 Y-41.673
G1 F3000 X-107.625 Y-43.734 E80.91975
G0 F9000 X-108.333 Y-43.592
G1 F3000 X-110.011 Y-41.914 E80.99868
G0 F9000 X-110.334 Y-42.156
G1 F3000 X-108.864 Y-43.626 E81.06782
G0 F9000 X-109.352 Y-43.705
G1 F3000 X-110.658 Y-42.398 E81.12928
G0 F9000 X-110.983 Y-42.639
G1 F3000 X-109.774 Y-43.848 E81.18614
G0 F9000 X-110.153 Y-44.034
G1 F3000 X-111.307 Y-42.881 E81.2404
G0 F9000 X-105.422 Y-38.583
G1 F3000 X-104.695 Y-39.311 E81.27462
G0 F9000 X-104.845 Y-38.595
G1 F3000 X-105.061 Y-38.378 E81.2848
G0 F9000 X-110.49 Y-44.263
G1 F3000 X-111.631 Y-43.122 E81.33847
G0 F9000 X-111.955 Y-43.364
G1 F3000 X-110.797 Y-44.522 E81.39294
G0 F9000 X-111.057 Y-44.828
G1 F3000 X-112.28 Y-43.605 E81.45047
G0 F9000 X-112.603 Y-43.847
G1 F3000 X-111.295 Y-45.155 E81.51199
G0 F9000 X-111.477 Y-45.539
G1 F3000 X-112.928 Y-44.088 E81.58024
G0 F9000 X-113.252 Y-44.33
G1 F3000 X-111.633 Y-45.949 E81.6564
G0 F9000 X-111.86 Y-46.287
G1 F3000 X-113.576 Y-44.572 E81.73709
G0 F9000 X-113.9 Y-44.813
G1 F3000 X-112.222 Y-46.492 E81.81604
G0 F9000 X-112.582 Y-46.697
G1 F3000 X-114.224 Y-45.055 E81.89327
G0 F9000 X-114.549 Y-45.296
G1 F3000 X-112.943 Y-46.902 E81.96881
G0 F9000 X-113.304 Y-47.106
G1 F3000 X-114.873 Y-45.538 E82.04259
G0 F9000 X-115.197 Y-45.779
G1 F3000 X-113.665 Y-47.311 E82.11465
G0 F9000 X-114.025 Y-47.516
G1 F3000 X-115.521 Y-46.021 E82.185
G0 F9000 X-115.846 Y-46.262
G1 F3000 X-114.387 Y-47.721 E82.25362
G0 F9000 X-114.747 Y-47.926
G1 F3000 X-116.169 Y-46.504 E82.32051
G0 F9000 X-116.494 Y-46.745
G1 F3000 X-115.108 Y-48.131 E82.3857
G0 F9000 X-115.469 Y-48.335
G1 F3000 X-116.818 Y-46.987 E82.44913
G0 F9000 X-117.142 Y-47.228
G1 F3000 X-115.83 Y-48.54 E82.51085
G0 F9000 X-116.191 Y-48.745
G1 F3000 X-117.466 Y-47.469 E82.57084
G0 F9000 X-117.79 Y-47.711
G1 F3000 X-116.552 Y-48.949 E82.62907
G0 F9000 X-116.913 Y-49.155
G1 F3000 X-118.115 Y-47.952 E82.68563
G0 F9000 X-118.439 Y-48.194
G1 F3000 X-117.273 Y-49.36 E82.74048
G0 F9000 X-117.635 Y-49.564
G1 F3000 X-118.763 Y-48.435 E82.79356
G0 F9000 X-119.087 Y-48.677
G1 F3000 X-117.995 Y-49.769 E82.84492
G0 F9000 X-118.356 Y-49.974
G1 F3000 X-119.412 Y-48.918 E82.8946
G0 F9000 X-119.735 Y-49.16
G1 F3000 X-118.717 Y-50.178 E82.94248
G0 F9000 X-119.078 Y-50.383
G1 F3000 X-120.059 Y-49.402 E82.98862
G0 F9000 X-120.384 Y-49.643
G1 F3000 X-119.438 Y-50.589 E83.03312
G0 F9000 X-119.8 Y-50.793
G1 F3000 X-120.708 Y-49.885 E83.07583
G0 F9000 X-121.032 Y-50.126
G1 F3000 X-120.16 Y-50.998 E83.11685
G0 F9000 X-120.521 Y-51.203
G1 F3000 X-121.356 Y-50.368 E83.15612
G0 F9000 X-121.681 Y-50.609
G1 F3000 X-120.882 Y-51.407 E83.19368
G0 F9000 X-121.243 Y-51.612
G1 F3000 X-122.004 Y-50.851 E83.22948
G0 F9000 X-122.329 Y-51.092
G1 F3000 X-121.604 Y-51.817 E83.26358
G0 F9000 X-121.965 Y-52.022
G1 F3000 X-122.653 Y-51.334 E83.29594
G0 F9000 X-122.977 Y-51.575
G1 F3000 X-122.326 Y-52.227 E83.32658
G0 F9000 X-122.686 Y-52.432
G1 F3000 X-123.301 Y-51.817 E83.35551
G0 F9000 X-123.625 Y-52.059
G1 F3000 X-123.047 Y-52.636 E83.38267
G0 F9000 X-123.408 Y-52.841
G1 F3000 X-124.112 Y-52.421 E83.4081
G1 X-123.95 Y-53.149 E83.43179
G1 X-124.76 Y-52.904 E83.45374
G1 X-124.671 Y-53.559 E83.47397
G1 X-125.409 Y-53.387 E83.49256
G1 X-125.393 Y-53.968 E83.50933
G1 X-126.057 Y-53.87 E83.5244
G1 X-126.115 Y-54.378 E83.53779
G1 X-126.705 Y-54.353 E83.54943
G1 X-126.836 Y-54.788 E83.55936
G1 X-127.354 Y-54.836 E83.56758
G1 X-127.558 Y-55.197 E83.57406
G1 X-127.84 Y-55.198 E83.58344
G1 F2400 E79.58344
G0 F9000 X-87.394 Y-32.56
;TYPE:WALL-INNER
G1 F2400 E83.58344
G1 F4020 X-80.154 Y-28.452 E83.86031
G1 X-78.736 Y-27.642 E83.91462
G1 X-78.025 Y-27.241 E83.94177
G1 X-75.275 Y-25.678 E84.04698
G1 X-76.098 Y-21.781 E84.17945
G1 X-78.262 Y-23.01 E84.26222
G1 X-87.394 Y-32.56 E84.70171
G1 F2400 E80.70171
G0 F9000 X-89.565 Y-34.251
;TYPE:WALL-OUTER
G1 F2400 E84.70171
G1 F3000 X-74.824 Y-25.881 E85.26552
G1 X-75.82 Y-21.163 E85.4259
G1 X-78.51 Y-22.689 E85.52876
G1 X-89.565 Y-34.251 E86.06081
G1 F2400 E82.06081
G0 F9000 X-86.331 Y-31.653
;TYPE:SKIN
G1 F2400 E86.06081
G1 F3000 X-86.059 Y-31.643 E86.06513
G1 X-85.916 Y-31.22 E86.07338
G1 X-85.338 Y-31.233 E86.08554
G1 X-85.364 Y-30.641 E86.10175
G1 X-84.616 Y-30.823 E86.12191
G1 X-84.949 Y-30.207 E86.1452
G0 F9000 X-84.672 Y-29.918
G1 F3000 X-84.075 Y-30.515 E86.17328
G0 F9000 X-83.714 Y-30.31
G1 F3000 X-84.396 Y-29.628 E86.20536
G0 F9000 X-84.119 Y-29.339
G1 F3000 X-83.353 Y-30.106 E86.24142
G0 F9000 X-82.992 Y-29.901
G1 F3000 X-83.843 Y-29.05 E86.28144
G0 F9000 X-83.566 Y-28.761
G1 F3000 X-82.631 Y-29.696 E86.32542
G0 F9000 X-82.271 Y-29.491
G1 F3000 X-83.29 Y-28.472 E86.37336
G0 F9000 X-83.013 Y-28.182
G1 F3000 X-81.909 Y-29.286 E86.42528
G0 F9000 X-81.549 Y-29.081
G1 F3000 X-82.737 Y-27.893 E86.48116
G0 F9000 X-82.46 Y-27.604
G1 F3000 X-81.188 Y-28.876 E86.54099
G0 F9000 X-80.828 Y-28.671
